X: 15
T:Gilderoy
% Nottingham Music Database
S:Kevin Briggs
M:4/4
L:1/8
R:Hornpipe
K:Am
P:A
E2|"Am"A2AB cBcd|"Am"efec "G"d2cd|"Am"edcB ABcA|"E7"B^GE2 E2(3E^FG|
"Am"A^GAB cBcd|"Am"efec "G"d2cd|"Am"ea^ga "E7"edcB|"Am"c2A2 A2:|
P:B
ef|"C"g2ga gfef|"C"gfec "G"d2cd|"Am"edcB ABcA|"E7"B^GE2 E2(3E^FG|
"Am"A^GAB cBcd|"Am"efec "G"d2cd|"Am"ea^ga "E7"edcB|"Am"c2A2 A2:|<end>
<start>
